X:1
T:Oakham Poachers
M:2/4
L:1/8
K:G
 D| GF GA| FG zG/2-A/2| Bc de| dc zB/2-c/2| dd eB| d-c/2-B/2 AG| EG GF|\
 A2 z| D| GF GA| F3/2 F/2 G F/2G/2| AB cd|c-B zB/2-c/2| d/2d/2 de B|\
 d2 cA/2-F/2| GD GA| G3|| z4|
